packages/icons/plugins/Markets.svg

<svg width="32" height="32" viewBox="-1 -2 32 32" xmlns="http://www.w3.org/2000/svg">
<g clip-path="url(#clip0_898_1294)">
            <path
                d="M24.9758 4.59146H7.67182C6.60782 4.59146 5.76782 5.43146 5.76782 6.43946V23.9115C5.76782 24.9195 6.60782 25.7595 7.67182 25.7595H24.9758C26.0398 25.7595 26.8798 24.9195 26.8798 23.9115V6.43946C26.8798 5.37546 26.0398 4.59146 24.9758 4.59146Z"
                fill="url(#paint0_linear_898_1294)"
            />
            <g filter="url(#filter0_bd_898_1294)">
                <path
                    d="M17.9201 25.5912C17.0241 25.5912 16.1841 25.2552 15.5681 24.6392L4.03211 13.0472C3.41611 12.4312 3.08011 11.6472 3.08011 10.7512L2.91211 5.26318C2.91211 4.36718 3.24811 3.47118 3.86411 2.79918C4.53611 2.12718 5.37611 1.79118 6.32811 1.84718L11.8721 1.95918C12.7121 1.95918 13.5521 2.35118 14.1681 2.91118L25.7041 14.4472C26.3201 15.0632 26.6561 15.9032 26.6561 16.7992C26.6561 17.6952 26.3201 18.5352 25.7041 19.1512L20.2721 24.6392C19.6561 25.2552 18.8161 25.5912 17.9201 25.5912Z"
                    fill="url(#paint1_linear_898_1294)"
                    fill-opacity="0.8"
                    shape-rendering="crispEdges"
                />
            </g>
            <path
                d="M8.37779 7.03392C7.59145 7.82026 6.34985 7.82026 5.56351 7.03392C4.77717 6.24757 4.77717 5.00598 5.56351 4.21964C6.34985 3.4333 7.59145 3.4333 8.37779 4.21964C9.16414 5.00598 9.16414 6.24757 8.37779 7.03392ZM6.39124 5.04737C6.06015 5.37846 6.06015 5.8751 6.39124 6.20619C6.72233 6.53728 7.21897 6.53728 7.55006 6.20619C7.88115 5.8751 7.88115 5.37846 7.55006 5.04737C7.21897 4.71628 6.72233 4.71628 6.39124 5.04737Z"
                fill="white"
            />
            <path d="M13.343 8.454L14.1501 9.26115L10.2621 13.1492L9.45492 12.342L13.343 8.454Z" fill="white" />
            <path
                d="M17.7348 12.8459L17.0464 13.5343L15.8831 12.3711L12.6835 15.5707L11.8658 14.753L15.0654 11.5534L13.8969 10.3848L14.5854 9.69638L17.7348 12.8459Z"
                fill="white"
            />
            <path
                d="M15.8409 18.9444C15.2852 18.3887 15.0118 17.8128 15.0206 17.2166C14.9977 16.4517 15.3354 15.7201 16.0335 15.022C16.7457 14.3098 17.4772 13.9722 18.2281 14.0091C18.8242 14.0003 19.4001 14.2738 19.9558 14.8295C20.5115 15.3851 20.785 15.9611 20.7762 16.5572C20.8113 17.3063 20.4728 18.037 19.7606 18.7492C19.0625 19.4473 18.3318 19.7858 17.5687 19.7647C16.9725 19.7735 16.3966 19.5 15.8409 18.9444ZM17.6531 18.6674C18.0786 18.6182 18.5103 18.3746 18.9482 17.9367C19.3843 17.5006 19.6261 17.0689 19.6736 16.6416C19.7246 16.2143 19.5892 15.8397 19.2674 15.5179C18.9456 15.1961 18.5701 15.0581 18.1411 15.1038C17.712 15.1495 17.2785 15.3913 16.8406 15.8292C16.4028 16.267 16.161 16.7005 16.1153 17.1296C16.0695 17.5587 16.2076 17.9341 16.5294 18.2559C16.8512 18.5777 17.2257 18.7149 17.6531 18.6674Z"
                fill="white"
            />
        </g>
        <defs>
            <filter
                id="filter0_bd_898_1294"
                x="-1.08789"
                y="-2.15884"
                width="31.744"
                height="33.75"
                filter-units="userSpaceOnUse"
                color-interpolation-filters="sRGB">
                <feFlood flood-opacity="0" result="BackgroundImageFix" />
                <feGaussianBlur in="BackgroundImage" std-deviation="2" />
                <feComposite in2="SourceAlpha" operator="in" result="effect1_backgroundBlur_898_1294" />
                <feColorMatrix
                    in="SourceAlpha"
                    type="matrix"
                    values="0 0 0 0 0 0 0 0 0 0 0 0 0 0 0 0 0 0 127 0"
                    result="hardAlpha"
                />
                <feOffset dy="2" />
                <feGaussianBlur std-deviation="2" />
                <feComposite in2="hardAlpha" operator="out" />
                <feColorMatrix type="matrix" values="0 0 0 0 0 0 0 0 0 0 0 0 0 0 0 0 0 0 0.1 0" />
                <feBlend mode="normal" in2="effect1_backgroundBlur_898_1294" result="effect2_dropShadow_898_1294" />
                <feBlend mode="normal" in="SourceGraphic" in2="effect2_dropShadow_898_1294" result="shape" />
            </filter>
            <linearGradient
                id="paint0_linear_898_1294"
                x1="16.3238"
                y1="4.59146"
                x2="16.3238"
                y2="25.7595"
                gradient-units="userSpaceOnUse">
                <stop stop-color="#1B90EE" />
                <stop offset="1" stop-color="#28E5FF" />
            </linearGradient>
            <linearGradient
                id="paint1_linear_898_1294"
                x1="14.7841"
                y1="1.84116"
                x2="14.7841"
                y2="25.5912"
                gradient-units="userSpaceOnUse">
                <stop stop-color="#FF0000" />
                <stop offset="1" stop-color="#FF2C2C" />
            </linearGradient>
            <clipPath id="clip0_898_1294">
                <rect width="28" height="28" fill="white" />
            </clipPath>
        </defs>
</svg>

<svg xmlns="http://www.w3.org/2000/svg" width="32" height="32" viewBox="-1 -2 32 32">
    <g clip-path="url(#Markets_svg__a)">
        <path fill="url(#Markets_svg__b)" d="M24.976 4.591H7.672c-1.064 0-1.904.84-1.904 1.848v17.473c0 1.008.84 1.848 1.904 1.848h17.304c1.064 0 1.904-.84 1.904-1.849V6.44c0-1.064-.84-1.848-1.904-1.848Z"/>
        <g filter="url(#Markets_svg__c)">
            <path fill="url(#Markets_svg__d)" fill-opacity=".8" d="M17.92 25.591a3.301 3.301 0 0 1-2.352-.952L4.032 13.047a3.172 3.172 0 0 1-.952-2.296l-.168-5.488c0-.896.336-1.792.952-2.464.672-.672 1.512-1.008 2.464-.952l5.544.112c.84 0 1.68.392 2.296.952l11.536 11.536c.616.616.952 1.456.952 2.352 0 .896-.336 1.736-.952 2.352l-5.432 5.488a3.301 3.301 0 0 1-2.352.952Z" shape-rendering="crispEdges"/>
        </g>
        <path fill="#fff" d="M8.378 7.034a1.974 1.974 0 0 1-2.814 0 1.974 1.974 0 0 1 0-2.814 1.974 1.974 0 0 1 2.814 0 1.974 1.974 0 0 1 0 2.814ZM6.39 5.047a.8.8 0 0 0 0 1.16.8.8 0 0 0 1.16 0 .8.8 0 0 0 0-1.16.8.8 0 0 0-1.16 0Zm6.953 3.407.807.807-3.888 3.888-.807-.807 3.888-3.888Zm4.392 4.392-.689.688-1.163-1.163-3.2 3.2-.817-.818 3.2-3.2-1.17-1.168.69-.689 3.149 3.15Zm-1.895 6.098c-.555-.555-.828-1.131-.82-1.727-.022-.765.315-1.497 1.014-2.195.712-.712 1.443-1.05 2.194-1.013.596-.009 1.172.265 1.728.82.556.556.829 1.132.82 1.728.035.75-.303 1.48-1.015 2.192-.698.698-1.43 1.037-2.192 1.016-.596.008-1.172-.265-1.728-.82Zm1.813-.277c.426-.049.857-.292 1.295-.73.436-.436.678-.868.726-1.295.05-.428-.085-.802-.407-1.124-.321-.322-.697-.46-1.126-.414-.429.046-.862.287-1.3.725-.438.438-.68.872-.726 1.3-.045.43.093.805.414 1.127.322.322.697.459 1.124.411Z"/>
    </g>
    <defs>
        <linearGradient id="Markets_svg__b" x1="16.324" x2="16.324" y1="4.591" y2="25.759">
            <stop stop-color="#1B90EE"/>
            <stop offset="1" stop-color="#28E5FF"/>
        </linearGradient>
        <linearGradient id="Markets_svg__d" x1="14.784" x2="14.784" y1="1.841" y2="25.591">
            <stop stop-color="red"/>
            <stop offset="1" stop-color="#FF2C2C"/>
        </linearGradient>
        <clipPath id="Markets_svg__a">
            <path fill="#fff" d="M0 0h28v28H0z"/>
        </clipPath>
        <filter id="Markets_svg__c" width="31.744" height="33.75" x="-1.088" y="-2.159" color-interpolation-filters="sRGB">
            <feFlood flood-opacity="0" result="BackgroundImageFix"/>
            <feGaussianBlur in="BackgroundImage"/>
            <feComposite in2="SourceAlpha" operator="in" result="effect1_backgroundBlur_898_1294"/>
            <feColorMatrix in="SourceAlpha" result="hardAlpha" values="0 0 0 0 0 0 0 0 0 0 0 0 0 0 0 0 0 0 127 0"/>
            <feOffset dy="2"/>
            <feGaussianBlur/>
            <feComposite in2="hardAlpha" operator="out"/>
            <feColorMatrix values="0 0 0 0 0 0 0 0 0 0 0 0 0 0 0 0 0 0 0.1 0"/>
            <feBlend in2="effect1_backgroundBlur_898_1294" result="effect2_dropShadow_898_1294"/>
            <feBlend in="SourceGraphic" in2="effect2_dropShadow_898_1294" result="shape"/>
        </filter>
    </defs>
</svg>
